src/graphics/assets/running-solid-dark.svg

<svg aria-hidden="true" focusable="false" data-prefix="fas" data-icon="running" class="svg-inline--fa fa-running fa-w-13" role="img" xmlns="http://www.w3.org/2000/svg" viewBox="0 0 416 512">
  <path fill="#21344F" d="M272 96c26.51 0 48-21.49 48-48S298.51 0 272 0s-48 21.49-48 48 21.49 48 48 48zM113.69 317.47l-14.8 34.52H32c-17.67 0-32 14.33-32 32s14.33 32 32 32h77.45c19.25 0 36.58-11.44 44.11-29.09l8.79-20.52-10.67-6.3c-17.32-10.23-30.06-25.37-37.99-42.61zM384 223.99h-44.03l-26.06-53.25c-12.5-25.55-35.45-44.23-61.78-50.94l-71.08-21.14c-28.3-6.8-57.77-.55-80.84 17.14l-39.67 30.41c-14.03 10.75-16.69 30.83-5.92 44.86s30.84 16.66 44.86 5.92l39.69-30.41c7.67-5.89 17.44-8 25.27-6.14l14.7 4.37-37.46 87.39c-12.62 29.48-1.31 64.01 26.3 80.31l84.98 50.17-27.47 87.73c-5.28 16.86 4.11 34.81 20.97 40.09 3.19 1 6.41 1.48 9.58 1.48 13.61 0 26.23-8.77 30.52-22.45l31.64-101.06c5.91-20.77-2.89-43.08-21.64-54.39l-61.24-36.14 31.31-78.28 20.27 41.43c8 16.34 24.92 26.89 43.11 26.89H384c17.67 0 32-14.33 32-32s-14.33-31.99-32-31.99z">
  </path>
</svg>

<svg width="416" height="512" viewBox="0 0 416 512" fill="none" xmlns="http://www.w3.org/2000/svg">
<path d="M272 96C298.51 96 320 74.51 320 48C320 21.49 298.51 0 272 0C245.49 0 224 21.49 224 48C224 74.51 245.49 96 272 96ZM113.69 317.47L98.89 351.99H32C14.33 351.99 0 366.32 0 383.99C0 401.66 14.33 415.99 32 415.99H109.45C128.7 415.99 146.03 404.55 153.56 386.9L162.35 366.38L151.68 360.08C134.36 349.85 121.62 334.71 113.69 317.47ZM384 223.99H339.97L313.91 170.74C301.41 145.19 278.46 126.51 252.13 119.8L181.05 98.66C152.75 91.86 123.28 98.11 100.21 115.8L60.54 146.21C46.51 156.96 43.85 177.04 54.62 191.07C65.39 205.1 85.46 207.73 99.48 196.99L139.17 166.58C146.84 160.69 156.61 158.58 164.44 160.44L179.14 164.81L141.68 252.2C129.06 281.68 140.37 316.21 167.98 332.51L252.96 382.68L225.49 470.41C220.21 487.27 229.6 505.22 246.46 510.5C249.65 511.5 252.87 511.98 256.04 511.98C269.65 511.98 282.27 503.21 286.56 489.53L318.2 388.47C324.11 367.7 315.31 345.39 296.56 334.08L235.32 297.94L266.63 219.66L286.9 261.09C294.9 277.43 311.82 287.98 330.01 287.98H384C401.67 287.98 416 273.65 416 255.98C416 238.31 401.67 223.99 384 223.99Z" fill="#222222"/>
</svg>
